src/assets/icons/sidebar-external-link.svg

<?xml version="1.0" standalone="no"?><!DOCTYPE svg PUBLIC "-//W3C//DTD SVG 1.1//EN" "http://www.w3.org/Graphics/SVG/1.1/DTD/svg11.dtd"><svg t="1595575471772" class="icon" viewBox="0 0 1024 1024" version="1.1" xmlns="http://www.w3.org/2000/svg" p-id="3979" xmlns:xlink="http://www.w3.org/1999/xlink" width="200" height="200"><defs><style type="text/css"></style></defs><path d="M804.571429 530.285714l0 182.857143q0 68-48.285714 116.285714t-116.285714 48.285714l-475.428571 0q-68 0-116.285714-48.285714t-48.285714-116.285714l0-475.428571q0-68 48.285714-116.285714t116.285714-48.285714l402.285714 0q8 0 13.142857 5.142857t5.142857 13.142857l0 36.571429q0 8-5.142857 13.142857t-13.142857 5.142857l-402.285714 0q-37.714286 0-64.571429 26.857143t-26.857143 64.571429l0 475.428571q0 37.714286 26.857143 64.571429t64.571429 26.857143l475.428571 0q37.714286 0 64.571429-26.857143t26.857143-64.571429l0-182.857143q0-8 5.142857-13.142857t13.142857-5.142857l36.571429 0q8 0 13.142857 5.142857t5.142857 13.142857zm219.428571-493.714286l0 292.571429q0 14.857143-10.857143 25.714286t-25.714286 10.857143-25.714286-10.857143l-100.571429-100.571429-372.571429 372.571429q-5.714286 5.714286-13.142857 5.714286t-13.142857-5.714286l-65.142857-65.142857q-5.714286-5.714286-5.714286-13.142857t5.714286-13.142857l372.571429-372.571429-100.571429-100.571429q-10.857143-10.857143-10.857143-25.714286t10.857143-25.714286 25.714286-10.857143l292.571429 0q14.857143 0 25.714286 10.857143t10.857143 25.714286z" p-id="3980"></path></svg>

<svg class="icon" viewBox="0 0 1024 1024" xmlns="http://www.w3.org/2000/svg" width="200" height="200"><path d="M804.571 530.286v182.857q0 68-48.285 116.286T640 877.714H164.571q-68 0-116.285-48.285T0 713.143V237.714q0-68 48.286-116.285T164.57 73.143h402.286q8 0 13.143 5.143t5.143 13.143V128q0 8-5.143 13.143t-13.143 5.143H164.571q-37.714 0-64.571 26.857t-26.857 64.571v475.429q0 37.714 26.857 64.571t64.571 26.857H640q37.714 0 64.571-26.857t26.858-64.571V530.286q0-8 5.142-13.143T749.714 512h36.572q8 0 13.143 5.143t5.142 13.143zM1024 36.57v292.572q0 14.857-10.857 25.714t-25.714 10.857-25.715-10.857L861.143 254.286 488.57 626.857q-5.714 5.714-13.142 5.714t-13.143-5.714l-65.143-65.143q-5.714-5.714-5.714-13.143t5.714-13.142l372.571-372.572L669.143 62.286q-10.857-10.857-10.857-25.715t10.857-25.714T694.857 0H987.43q14.857 0 25.714 10.857T1024 36.571z"/></svg>
